Sources/FrostedUI/Resources/Icons.xcassets/medalCheck32.imageset/medal-check-32.svg

<svg
  width="32"
  height="32"
  viewBox="0 0 32 32"
  fill="none"
  xmlns="http://www.w3.org/2000/svg"
  data-fui-icon="true"
>
  <path
    fill-rule="evenodd"
    clip-rule="evenodd"
    d="M1.01809 3.32623C0.709932 1.47651 2.26428 0.0625 3.96261 0.0625H6.32177C8.53011 0.0625 10.1789 1.8502 10.5575 3.85563C10.9548 5.95969 11.698 7.66812 12.3415 8.84933C12.598 9.32009 12.8379 9.70563 13.0323 9.99744C13.9775 9.73835 14.9726 9.6 16 9.6C17.0275 9.6 18.0226 9.73834 18.9677 9.99741C19.1621 9.7056 19.402 9.32008 19.6584 8.84933C20.302 7.66812 21.0452 5.95969 21.4424 3.85563C21.8211 1.8502 23.4699 0.0625 25.6782 0.0625H28.0532C29.7515 0.0625 31.3061 1.47654 30.9973 3.32644C30.378 7.0359 28.4717 9.76702 26.74 11.5598C25.9091 12.4199 25.1132 13.0698 24.5072 13.5149C26.1859 15.4734 27.2 18.0183 27.2 20.8C27.2 26.9856 22.1856 32 16 32C9.81445 32 4.80004 26.9856 4.80004 20.8C4.80004 18.0178 5.8145 15.4726 7.49368 13.514C6.88904 13.0689 6.09503 12.4191 5.26622 11.5592C3.53813 9.76635 1.63602 7.03531 1.01809 3.32623ZM23.4447 12.4322C23.4786 12.4081 23.5133 12.3831 23.5489 12.3573C24.107 11.9526 24.8664 11.3404 25.6611 10.5177C27.2526 8.87006 28.963 6.40264 29.5178 3.07943C29.6455 2.31456 29.006 1.5625 28.0532 1.5625H25.6782C24.3519 1.5625 23.1935 2.66611 22.9164 4.13393C22.4838 6.42521 21.6758 8.2819 20.9756 9.56697C20.7804 9.92524 20.5932 10.2398 20.4243 10.5077C21.5355 10.9861 22.5538 11.6391 23.4447 12.4322ZM11.0243 9.56697C11.2196 9.92526 11.4068 10.2398 11.5757 10.5078C10.4648 10.986 9.44681 11.6387 8.55617 12.4315C8.52286 12.4078 8.4887 12.3832 8.45373 12.3578C7.89692 11.9531 7.13923 11.341 6.34622 10.5183C4.75826 8.87077 3.0514 6.40329 2.4977 3.07973C2.37022 2.31453 3.00998 1.5625 3.96261 1.5625H6.32177C7.64805 1.5625 8.80645 2.66611 9.08359 4.13393C9.51621 6.42521 10.3242 8.2819 11.0243 9.56697ZM16 30.5C21.3572 30.5 25.7 26.1572 25.7 20.8C25.7 15.4428 21.3572 11.1 16 11.1C10.6429 11.1 6.30004 15.4428 6.30004 20.8C6.30004 26.1572 10.6429 30.5 16 30.5Z"
    fill="currentColor"
  />
  <path
    fill-rule="evenodd"
    clip-rule="evenodd"
    d="M20.5303 17.4697C20.8232 17.7626 20.8232 18.2375 20.5303 18.5303L14.9303 24.1303C14.6374 24.4232 14.1626 24.4232 13.8697 24.1303L11.4697 21.7303C11.1768 21.4375 11.1768 20.9626 11.4697 20.6697C11.7626 20.3768 12.2374 20.3768 12.5303 20.6697L14.4 22.5394L19.4697 17.4697C19.7626 17.1768 20.2374 17.1768 20.5303 17.4697Z"
    fill="currentColor"
  />
</svg>

<svg xmlns="http://www.w3.org/2000/svg" width="32" height="32" fill="none" data-fui-icon="true" viewBox="0 0 32 32"><path fill="currentColor" fill-rule="evenodd" d="M1.018 3.326C.71 1.476 2.264.063 3.963.063h2.359c2.208 0 3.857 1.787 4.235 3.793a17.2 17.2 0 0 0 1.784 4.993c.257.471.497.857.691 1.148.945-.259 1.94-.397 2.968-.397 1.027 0 2.023.138 2.968.397.194-.291.434-.677.69-1.148a17.2 17.2 0 0 0 1.784-4.993C21.822 1.85 23.47.063 25.678.063h2.375c1.698 0 3.253 1.414 2.944 3.263-.619 3.71-2.525 6.441-4.257 8.234-.83.86-1.627 1.51-2.233 1.955A11.16 11.16 0 0 1 27.2 20.8C27.2 26.986 22.186 32 16 32S4.8 26.986 4.8 20.8c0-2.782 1.015-5.327 2.694-7.286a17.7 17.7 0 0 1-2.228-1.955c-1.728-1.793-3.63-4.524-4.248-8.233m22.427 9.106.104-.075a16 16 0 0 0 2.112-1.84c1.592-1.647 3.302-4.114 3.857-7.438.127-.764-.512-1.517-1.465-1.517h-2.375c-1.326 0-2.485 1.104-2.762 2.572a18.7 18.7 0 0 1-1.94 5.433c-.196.358-.383.673-.552.94a11.2 11.2 0 0 1 3.02 1.925m-12.42-2.865c.195.358.382.673.55.94a11.2 11.2 0 0 0-3.019 1.925l-.102-.074a16 16 0 0 1-2.108-1.84C4.758 8.871 3.051 6.403 2.498 3.08c-.128-.765.512-1.517 1.465-1.517h2.359c1.326 0 2.484 1.103 2.762 2.57a18.7 18.7 0 0 0 1.94 5.434M16 30.5c5.357 0 9.7-4.343 9.7-9.7s-4.343-9.7-9.7-9.7-9.7 4.343-9.7 9.7 4.343 9.7 9.7 9.7" clip-rule="evenodd"/><path fill="currentColor" fill-rule="evenodd" d="M20.53 17.47a.75.75 0 0 1 0 1.06l-5.6 5.6a.75.75 0 0 1-1.06 0l-2.4-2.4a.75.75 0 1 1 1.06-1.06l1.87 1.87 5.07-5.07a.75.75 0 0 1 1.06 0" clip-rule="evenodd"/></svg>
